X:1
T:Symphony No. 7 in A Major
T:4th Movement
T:Ludwig van Beethoven
T:Adp. from arrangements by Ernst Pauer and Franz Liszt
%%score { ( 1 4 ) | ( 2 3 ) }
L:1/8
Q:1/4=120
M:2/4
K:A
V:1 treble nm="Piano"
V:4 treble 
V:2 bass 
V:3 bass 
V:1
!ff!"^Allegro con brio" [ege'] [ee']/[ee']/ [ee'] z | z4 | [ebd'] [ebd']/[ebd']/ [ebd'] z | z4 |: %4
 .BB/c/ e/d/c/B/ | .cc/d/ f/e/d/c/ | BB/c/ e/d/c/B/ | c>a a2- | [Ba]B/c/ e/d/c/B/ | %9
 cc/d/ f/e/d/c/ | BB/c/ e/d/c/B/ |1 [ca][Aa]/[Aa]/ [Aa] z :|2 [ca][Aa]/[Aa]/ [Aa] z |: %13
 .[Ff]f/=g/ b/a/g/f/ | .ee/f/ a/^g/f/e/ | .ff/=g/ b/a/^g/f/ | f^e =e2 | ^d=d/e/ g/f/e/d/ | %18
 cc/d/ f/e/d/c/ | BB/c/ e/d/c/B/ |1 A/ C/D/E/ F/=G/A/G/ :|2 [ca][Aa]/[Aa]/ [Aa] z || %22
 [ca] [Aa]/[Aa]/ [Aa] z | [ege'] [ge']/e/ .[ge'] z | [ege'] [ge']/e/ .[ge'] z |!ff! [ec']3 [db] | %26
 .[ca].[ec'].[db].[ca] | .[db].[ca].[Bg].[df] | .[ce].[Bd].[Ac].[GB] | [ca] [Aa]/[Aa]/ [Aa] z | %30
 [Aca] [Aa]/[Aa]/ [Aa] z | [ege'] [ge']/e/ .[ge'] z | [ege'] [ge']/e/ .[ge'] z |!ff! [ec']3 [db] | %34
 [ca][ec'][db][ca] | [db][ca][Bg][Af] | [Ge][Fd][Ec][DB] | .[CA]!f! A/B/ d/c/B/A/ | e2 d2 | %39
 c2 [DEB]2 | [CEA]2 [DEGB]2 | .[CAc] A/B/ d/c/B/A/ | e2 d2 | c2 [DEB]2 | [CEA]2 [C^EG]2 | %45
 .[CFA] f/g/ b/a/g/f/ | c4- | c2 [Gc^eg]2 | [FAcf]2 [GB^eg]2 | .[Acfa] f/g/ b/a/g/f/ | c4- | %51
 c2 [Gc^eg]2 | [FAcf]2 [GB^eg]2 | .[Acfa]>[Afa] [Afa]>[Afa] | [Afa]>[Afa] [Afa]>[Afa] | %55
 [Bgb]>[Bgb] [Bgb]>[Bgb] | [Bgb]>[Bgb] [Bgb]>[Bgb] | [Afa]>[Afa] [Afa]>[Afa] | %58
 [^Af^a]>[Afa] [Afa]>[Afa] | [^Bf^b]>[Bfb] [Bfb]>[Bfb] | [cfac']>[cfac'] [cfac']>[cfac'] | %61
 [^dfa^d']>[ee'] [f^bd'f']>[fbd'f'] | [f^b^d'f']>[fbd'f'] [fbd'f']>[fbd'f'] | %63
 .[f^b^d'f'] z .[fbd'f'] z | [^df] z/ f/az/f/ | ^dz/d/fz/d/ | ^Bz/^d/ez/c/ | ^B z!mf! [f^d'f'] z | %68
!mp! [^df] z/ f/az/f/ | ^dz/d/fz/d/ | ^Bz/^d/ez/c/ |!p! ^Bz/^d/fz/d/ | ^Bz/^d/ez/c/ | %73
 ^Bz/^d/fz/d/ | ^Bz/^d/gz/f/ |!p! e>[F^d] [Ge]2 |!p! [F^d]>[Ec]!f! [Fd]2 | %77
!p! [Ec]>[^D^B]!f! [Ec]2 |!p! [F^d]>[Ec] [Fd]2 | e4- | ez/f/=gz/e/ | fz/e/=dz/f/ | ez/f/=gz/e/ | %83
 fz/e/=dz/f/ | ^dz/e/fz/d/ | [Ge]>[F^d]!f! [Ge]2 |!p! [F^d]>[Ec]!f! [Fd]2 | %87
!p! [Ge]>[^D^B]!f! [Ec]2 |!p! [F^d]>[Ec] [Fd]2 |!p! e4- | ez/f/=gz/e/ | fz/e/=dz/f/ | ez/f/=gz/f/ | %93
 =g z/ g/- g2- | gz/=G/ [EG]2- | [EG]4- | [EG]4 | =Gz/A/cz/e/ | fz/a/d'z/a/ | x z/ =g/- g2- | %100
 gz/=G/ [EG]2- | [EG]4- | [EG]4 | =Gz/A/cz/e/ |!f! fz/a/d'z/f'/ | %105
 [af']/f/[af']/f/ [af']/f/[af']/f/ | [af']/f/[af']/f/ [af']/f/[af']/f/ | %107
!ff! [ge']/e/[ge']/e/ [ge']/e/[ge']/e/ |!ff! [af']/f/[af']/f/ [af']/f/[af']/f/ | %109
!ff! [ge']/e/[ge']/e/ [ge']/e/[ge']/e/ |!ff! [af']/f/[af']/f/ [af']/f/[af']/f/ | %111
!ff! [ge']/e/[ge']/e/ [ge']/e/[ge']/e/ |!ff! [af']/!f!f/[af']/f/ [af']/f/[af']/f/ | %113
!ff! [gc'e']/!f!e/[gc'e']/e/ [gc'e']/e/[gc'e']/e/ |!ff! [g^b^d']/f/[gbd']/f/ [gbd']/f/[gbd']/f/ | %115
 .[c'e'] z!ff! ^d'2 | ^d'2 d'2 | e' z!ff! ^d'2 | ^d'2!ff! d'2 | e' z!ff! ^d'2 | e' z!ff! ^d'2 | %121
 e' z!ff! ^d'2 | [ge'] e/e'/ e/e'/e/e'/ | e[ee']/[ee']/ [ee'] z | z4 | %125
!ff! [e=g_be'] [gbe']/e/ [gbe'] z | z4 | [E=G]G/A/!ff! =c/!f!_B/A/G/ | AA/_B/!ff! d/!f!=c/B/A/ | %129
 =GG/A/!ff! =c/!f!_B/A/G/ | A>[=F=f]!ff! [Ff]2- | [Ff]4 |!f! [Ee] z z2 | z4 | %134
 .BB/=c/!ff! e/!f!d/c/B/ | .=cc/d/ =f/!f!e/d/c/ | .BB/=c/ e/d/c/B/ | =c>[Aa]!ff! [Aa]2- | [Aa]4 | %139
 [^F^f] z z2 | z4 | [_B,_B]>[=G=g] [Gg]2- | [Gg]4 | [Ee] z z2 | z4 | [_A,_A]>[=F=f] [Ff]2- | %146
 [Ff]4 ||[K:C] .[FBf] d/e/ g/!f!f/e/d/ |: .ee/f/ a/!f!g/f/e/ | .dd/e/ g/!f!f/e/d/ | %150
 e>[cc'] [cc']2 | .[dc']d/e/ g/!f!f/e/d/ | .ee/f/ a/!f!g/f/e/ | .dd/e/ g/!f!f/e/d/ |1 %154
 c [cc']/[cc']/ [cc'] z | [GBd]d/e/ g/!f!f/e/d/ :|2 [ce] [cec']/[cec']/ [cec'] z |: %157
 .aa/b/ d'/c'/!ff!b/!f!a/ | gg/a/ c'/!f!b/a/g/ | aa/b/ d'/!f!c'/_b/a/ | a^g =g2 | %161
 ^f=f/g/ b/a/g/f/ | ee/f/ a/g/f/e/ | dd/e/ g/f/e/d/ |1 [cc'][cec']/[cec']/ [cec'] z :|2 %165
 c z!ff! [Aa]2 || [dd'] d/d/!ff! d z | [cc'] c/c/!ff! c z | [Gg] z [B,B] z | %169
 [Cc] c'/c/!ff! [cc']2 | [ff'] f/f/!ff! f!ff! z | [dd'] d/d/!ff! d z | [_B_b] c/c/!ff! c z | %173
 [Ff] f/f/!ff! f z | [dd'] d/d/!ff! d z | [_B_b] B/B/!ff! [Ee]2 | [Gg] z!ff! [^C^c]2 | %177
 [Dd]!mp! d/d'/ d/d'/d/d'/ | [df]/d'/d/d'/ [da]/d'/d/d'/ | d/d'/d/d'/ [df]/d'/d/d'/ | %180
 [fa]/d'/d/d'/ d/d'/d/d'/ | [df]/d'/d/d'/ [da]/d'/d/d'/ | d/d'/d/d'/ [df]/d'/d/d'/ | %183
 [da]/d'/d/d'/ d/d'/d/d'/ | [da]/d'/d/d'/ [d^f]/d'/d/d'/ | [da]/d'/d/d'/ [d^f]/d'/d/d'/ | %186
 [d_b]/d'/d/d'/ [dg]/d'/d/d'/ | [d_b]/d'/d/d'/ [dg]/d'/d/d'/ | [d=b]/d'/d/d'/ [d^g]/d'/d/d'/ | %189
 [eb]/e'/e/e'/ [e^g]/e'/e/e'/ | [e=c']/e'/e/e'/ [ea]/e'/e/e'/ | [e^c']/e'/e/e'/ [e^a]/e'/e/e'/ | %192
 [ed']/e'/e/e'/ [eb]/e'/e/e'/ | [e^d']/e'/e/e'/ [e^b]/e'/e/e'/ | e/e'/e/e'/ [e^c']/e'/e/e'/ | %195
 e/e'/e/e'/ [e=d']/e'/e/e'/ | e/e'/e/e'/ [e^d']/e'/e/e'/ | e/e'/e/e'/ [e^d']/!mp!e'/e/e'/ | %198
!p! e E/e/ [E^d]/e/E/e/ | E/e/E/e/ [E^d]/e/E/e/ | E/e/E/e/ [E^d]/!p!e/E/e/ | %201
 E/e/E/e/!pp! E/e/E/e/ | [=F=f] [A,CF]/[A,CF]/ [A,CF] z | [Acf][Acf]/[Acf]/ [Acf] z | %204
 [A,C_E][A,CE]/[A,CE]/ [A,CE] z | [Ac_e][Ace]/[Ace]/ [Ace] z | .cc/d/ f/_e/d/c/ | %207
 .dd/_e/ g/f/e/d/ | .cc/d/ f/_e/d/c/ | d>_b [db]2- | [db]2 d>_b | %211
 d>_b[I:staff +1] D>[I:staff -1]_B | D>_B z2 | [A,CF][A,CF]/[A,CF]/ [A,CF] z | %214
 [Acf][Acf]/[Acf]/ [Acf] z | [A,C_E][A,CE]/[A,CE]/ [A,CE] z | [Ac_e][Ace]/[Ace]/ [Ace] z | %217
 .cc/d/ f/_e/d/c/ | .dd/_e/ g/f/e/d/ | .cc/d/ f/_e/d/c/ | d>=b [d^gb]2- | [dgb]2!p! d>b | %222
!mp! d>b[I:staff +1] D>[I:staff -1]B |!f! D>B z2 | [e^gbe'][ee']/[ee']/ [ee'] z | z4 | %226
 [ebd'][ebd']/[ebd']/ [ebd'] z | z4 |:[K:A] .BB/c/!ff! e/!f!d/c/B/ | .cc/d/!ff! f/!f!e/d/c/ | %230
 BB/c/!ff! e/!f!d/c/B/ | c>a!ff! a2- | [Ba]B/c/ e/d/c/B/ | cc/d/ f/e/d/c/ | BB/c/ e/d/c/B/ |1 %235
 a[Aa]/[Aa]/ [Aa] z :|2 [ca][Aa]/[Aa]/ [Aa] z || [Aca][Aa]/[Aa]/ [Aa] z | [ege'][ge']/e/ .[ge'] z | %239
 [ege'][ge']/e/ .[ge'] z |!ff! [ec']3 [db] | .[ca].[ec'].[db].[ca] | .[db].[ca].[Bg].[df] | %243
 .[ce].[Bd].[Ac].[GB] | [Aa] [Aa]/[Aa]/ [Aa] z | [Aca] [Aa]/[Aa]/ [Aa] z | %246
 [ege'] [ge']/e/ .[ge'] z | [ege'] [ge']/e/ .[ge'] z | [ec']3 [db] | [ca][ec'][db][ca] | %250
 [db][ca][Bg][Af] | [Ge][Fd][Ec][DB] | .[CA] A/B/ d/c/B/A/ | e2 d2 | c2 [DEB]2 | [CEA]2 [DEGB]2 | %256
 .[CAc]!f! A/B/ d/c/B/A/ | e2 d2 | c2 [DE_B]2 | [CEA]2 [E=Gc]2 | [D=Fd]d/e/ =g/=f/e/d/ | %261
 a2"_r.h." =g2 | =f2 e2 | d^c/d/ =f/e/d/e/ | =f d/e/ =g/f/e/d/ | a2"_r.h." =g2 | =f2 e2 | %267
 d^c/d/ =f/e/d/e/ | [=Fd=f]>[Fdf][Fdf]>[Fdf] | [=Fd=f]>[Fdf][Fdf]>[Fdf] | %270
 [=Ge=g]>[Geg][Geg]>[Geg] | [=Ge=g]>[Geg][Geg]>[Geg] | [=Fd=f]>[Fdf][Fdf]>[Fdf] | %273
 [^Fd^f]>[Fdf][Fdf]>[Fdf] | [^Gd^g]>[Gdg][Gdg]>[Gdg] | [Ad=fa]>[Adfa][Adfa]>[Adfa] | %276
 [Bdb]>[=c=c'][dad']>[dad'] |[dad']>[dad'][dad']>[dad'] | [dgd'] z [=fd'=f'] z | %279
!p! [d=f] z/ d/fz/d/ | Bz/B/dz/B/ | Gz/B/ =cz/A/ | [B,G] z .[=fd'=f'] z |!p! [d=f] z/ d/fz/d/ | %284
 Bz/B/dz/B/ | Gz/B/ =cz/A/ | G>B d>B | G>B =c>A | G>B d>B | Gz/B/ ez/d/ |!p! [E^c]>.[DB]!f! [Ec]2 | %291
 [DB]>.[CA]!f! [DGB]2 | [CA]>.[B,G]!f! [CA]2 | [DB]>.[CA]!f! [DGB]2 | [Cc]4 | ^dz/e/fz/d/ | %296
 ez/^d/cz/e/ | ^dz/e/fz/d/ | ez/^d/cz/e/- |!pp! [e=d'] z/ c'/ b z/ d'/ |!p! [ec']>[db]!f! [ec']2 | %301
!p! [db]>[ca]!f! [db]2 | [ca]>[Bg]!f! [ca]2 |!p! [db]>[ca]!f! [db]2 |!p! c' z z2 | ^dz/e/ fz/d/ | %306
 ez/^d/ cz/e/ |!pp! [=db]z/c'/ d'z/b/ | c'z/b/ az/c'/ | bz/c'/ d'z/b/ | c'z/b/ az/c'/ | %311
 bz/c'/d'z/c'/ | z z/ d'/ d'2 | d' z/ d/ [Bd]2- | [Bd]4- | [Bd]4 | Bz/e/ gz/b/ | %317
 c'z/e'/!mp!a'z/e'/ | z z/ d'/- d'2- | d' z/ d/- [Bd]2- | [Bd]4- | [Bd-]4 | d z/!f! e/gz/b/ | %323
 c'z/e'/a'z/e'/ | [_be']/e/[be']/e/ [be']/e/[be']/e/ | [_be']/e/[be']/e/ [be']/e/[be']/e/ | %326
!ff! [a=f']/!f!=f/[af']/f/ [af']/f/[af']/f/ |!ff! [_be']/!f!e/[be']/e/ [be']/e/[be']/e/ | %328
!ff! [a=f']/!f!=f/[af']/f/ [af']/f/[af']/f/ |!ff! [_be']/!f!e/[be']/e/ [be']/e/[be']/e/ | %330
!ff! [_be']/!f!e/[be']/e/ [be']/e/[be']/e/ |!ff! [_be']/!f!e/[be']/e/ [be']/e/[be']/e/ | %332
!ff! [a=f']/!f!=f/[af']/f/ [af']/f/[af']/f/ |!ff! [_be']/!f!e/[be']/e/ [be']/e/[be']/e/ | %334
!ff! [a=f']/!f!=f/[af']/f/ [af']/f/[af']/f/ |!ff! [a=c'^d']/!f!^d/[ac'd']/d/ [ac'd']/d/[ac'd']/d/ | %336
!ff! [a^c'e']/!f!e/[ac'e']/e/ [ac'e']/e/[ac'e']/e/ | %337
!ff! [^gbe']/!f!e/[gbe']/e/ [gbe']/e/[gbe']/e/ | [ac'e']/c'/d'/e'/!ff! =g'/!f!=f'/e'/d'/ | %339
 =g'/=f'/e'/d'/ g'/f'/e'/d'/ | c'/c'/d'/e'/!ff! =g'/!f!=f'/e'/d'/ | =g'/=f'/e'/d'/ g'/f'/e'/d'/ | %342
 c'/c'/d'/e'/!ff! =g'/!f!=f'/e'/d'/ | c'/c'/d'/e'/!ff! =g'/!f!=f'/e'/d'/ | %344
 c'/c'/d'/e'/!ff! =g'/!f!=f'/e'/d'/ | [ac'e']/e/[ac'e']/e/ [ac'e']/e/[ac'e']/e/ | %346
!ff! [eac'e'] A/A/ A z | z4 |!ff! [=gc'e'=g'] A/A/ A z | z4 | [=gc'e'=g'] A/A/ A z | %351
 [=gc'e'=g'] A/A/ A z | [=gc'e'=g'] A/A/ A z | [=gc'e'=g'] A/A/ A z | [Fcf] c/d/ f/e/d/c/ | f2 e2 | %356
 d2 [EFc]2 | [DFB]2 [EFc]2 | d B/c/ e/d/c/B/ | f2 e2 | d2 [EFc]2 | [DFB]2 [EFc]2 | d z z2 | %363
 z B,/C/ E/D/C/B,/ | .E B/c/ e/d/c/B/ | z e/f/ a/g/f/e/- | .[ea] z z2 | z B,/C/ E/D/C/B,/ | %368
 .E B/c/ e/d/c/B/ | z e/f/ a/=g/f/e/ | [da]2 [e=g]2 | f2 e2 | [Dd] d/e/ f/e/d/c/ | %373
 .B D/E/ F/E/D/C/ |!f! B, d/e/ f/e/d/c/ | .B D/E/ F/E/D/C/ | .B, d/e/ =f/e/d/=c/ | %377
 [D=FB] D/E/ F/E/D/=C/ |[K:bass] [D,=F,B,] =C,/D,/ F,/_E,/D,/C,/- | %379
 [C,_E,=G,][K:treble] =C/D/ =F/_E/D/C/- | [C_E=G][K:bass] =C,/D,/ =F,/_E,/D,/C,/- | %381
 [C,_E,=G,][K:treble] =c/d/ =f/_e/d/c/- | [c_e=g] =C/D/ _E/D/C/_B,/ | A, =c/d/ _e/d/c/_B/ | %384
 [=C_EA] _B,/C/ E/_D/C/B,/ | z _B,/=C/ _E/_D/C/B,/ | [_D=F] _B,/=C/ _E/D/C/B,/ | %387
 z _B/=c/ _e/_d/c/B/ | [_d=f] A,/_B,/ =D/=C/B,/A,/ | A, A/_B/ d/=c/B/A/ | [=CA] A,/B,/ D/C/B,/A,/ | %391
 z A,/B,/ D/=C/B,/A,/ | [=CE] A,/B,/ D/C/B,/A,/ | z A/B/ d/=c/B/A/ | [A=ce] A/B/ d/c/B/A/ | %395
 [A=ce] A/B/ d/c/B/A/ | [Bde] B/=c/ e/d/c/B/ | [Bde] B/=c/ e/d/c/B/ | [A^ce] A/B/ d/c/B/A/ | %399
 [Ace] A/B/ d/c/B/A/ | [Bde] B/c/ e/d/c/B/ | [Bde] B/c/ e/d/c/B/ | [Ece] c/d/ f/e/d/c/ | %403
 [Fdf] d/e/ g/f/e/d/ | [Geg] e/f/ a/g/f/e/ | [Afa] f/g/ b/a/g/f/ | [Bgb] g/a/ c'/b/a/g/ | %407
 [cac'] a/b/ d'/c'/b/a/ | [dbd'] b/c'/ e'/d'/c'/b/ | [dbd'] b/c'/ [ge']/d'/c'/b/ | %410
!ff! [cac'][Aca]/[Aca]/ [Aca] z | [CAc][Aca]/[Aca]/ [Aca] z | [DBd][dbd']/[dbd']/ [dbd'] z | %413
 [DBd][dbd']/[dbd']/ [dbd'] z |[Q:1/4=132]"_accel." [cec']3 [Bdb] | [Aca][cec'][Bdb][Aca] | %416
 [Bdb][Aca][GBg][fd'f'] | [ec'e'][dbd'][cac'][Bgb] | [cac'] [A,CA]/[A,CA]/ [A,CA] z | %419
 [cac'] [A,CA]/[A,CA]/ [A,CA] z | [dbd'] [B,DE]/[B,DE]/ [B,DE] z | [dbd'] [B,DE]/[B,DE]/ [B,DE] z | %422
!8va(! [c'e']/c''/[c'e']/c''/ [c'e']/c''/[bd']/b'/ | [ac']/a'/[c'e']/c''/ [bd']/b'/[ac']/a'/ | %424
 [bg'b'][af'a'][ge'g'][fd'f'] | [ec'e'][dbd'][cac'][Bgb] | [c'a'c''][bg'b'][af'a'][ge'g'] | %427
 [fd'f'][ec'e'][dbd'][cac'] | [d'b'd''][c'a'c''][bg'b'][af'a'] | [ge'g'][fd'f'][ec'e'][dbd'] | %430
 [e'c''e''][d'b'd''][c'a'c''][bg'b'] | [af'a'][ge'g'][fd'f'][ec'e']!8va)! | %432
[Q:1/4=144]"_accel." [CE][DF][E=G][FA] | [=GB][Ac][Bd][ce] | [Fdf][=Ge=g][Afa][Bgb] | %435
 [cac'][dbd'][ec'e'][fd'f'] |!ff! [eae']!f![Ae] [ee']2 |!ff! [ff']!f![Adf] [ff']2 | %438
!ff! [ee']!f![Ace] [ee']2 | [ee']!f![GBe] [ee']2 | .[B,E].[A,E].[G,E].E | .E.[DE].[CE].[B,E] | %442
 [cc'][Bb][Aa][Gg] |!mp! [Ff][Ee][Dd][Cc] | [Dd][Ee][Ff][Gg] |!mf! [Aa][Bb][cc'][dd'] | %446
 [ee'][dd'][cc'][Bb] |!f! [Aa][Gg]!ff![Ff][Ee] | [ce][Fdf][=Ge=g][Afa] | %449
 [B=gb][cac'][dbd'][ec'e'] |!8va(! [fd'f'][=ge'=g'][af'a'][bg'b'] | %451
 [c'a'c''][d'b'd''] [e'c''e''][f'd''f''] | [e'a'e'']!f![eae'] [eae']2 | %453
!ff! [d'f'd'']!f![fd'f'] [fd'f']2 |!ff! [c'a'c'']!f![eac'e'] [eac'e']2 | [bg'b'][egbe'] [egbe']2 | %456
!ff! [ac'a']!8va)!!f! a/b/ d'/c'/b/a/ | z2 [bd']2 | x b/c'/ e'/d'/c'/b/ | [Aca] b/c'/ e'/d'/c'/b/ | %460
!ff! e'/!f!d'/c'/b/!ff! e'/!f!d'/c'/b/ |!ff! e'/!f!d'/c'/b/!ff! e'/!f!d'/c'/b/ | %462
 e'/d'/c'/b/a/g/f/e/ |d/c/B/A/(3G/F/ z/ (3D/C/B,/ | A, z z [Aca]/[Aca]/ | %465
 [Aca] z z [ac'a']/[ac'a']/ | [ac'a'] z z2 |] %467
V:2
!ped! [E,,B,,E,] E,/E/ E,!ped-up! z | z4 |!ped! [E,,E,] [E,B,]/D/ [E,B,]!ped-up! z | z4 |: %4
!mf!!f! [G,B,] z z [G,B,] | [A,C] z z [A,C] | [G,B,] z z [G,B,] | [A,C] x x2 | G, z z [G,B,] | %9
 [A,C] z z [A,C] | [G,B,] z z [G,B,] |1 [A,,A,]/B,,/C,/D,/ E,/F,/G,/A,/ :|2 %12
 [A,C]/C/E/F/ =G/F/G/C/ |: [D,A,D] z ^E,F, | [C,=E,A,] z ^D,E, | [=D,F,A,] z ^E,F, | %16
 A,/C/A,/C/ ^A,/C/A,/C/ | z/ B,/=A,/B,/ G,/B,/G,/B,/ | z/ A,/E,/A,/ E,/A,/E,/A,/ | %19
 z/ B,/G,/B,/ G,/B,/G,/B,/ |1 A,/A,,/B,,/C,/ D,/E,/F,/E,/ :|2 [A,,E,A,]!ped!A,/A,/ A,!ped-up! z || %22
 [A,,E,A,] A,/A,/ A, z |!ped! [E,,E,] [E,G,B,]/[E,G,B,]/ [E,G,B,]!ped-up! z | %24
!ped! [E,,E,] [E,G,B,]/[E,G,B,]/ [E,G,B,]!ped-up! z |!ped! [A,,,A,,] z [E,A,CE] z | %26
 [A,,,A,,] z [E,A,CE] z!ped-up! |!ped! [E,,E,] z [E,G,B,E] z | [E,,E,] z [E,G,B,E] z!ped-up! | %29
 [A,,C,E,A,] A,/A,/ A, z | [A,,E,A,]!ped! A,/A,/ A,!ped-up! z | %31
!ped! [E,,E,] [E,G,B,]/[E,G,B,]/ [E,G,B,]!ped-up! z | %32
!ped! [E,,E,] [E,G,B,]/[E,G,B,]/ [E,G,B,]!ped-up! z |!ped! [A,,,A,,]A,,/A,,/ A,,!ped-up! [A,,B,,] | %34
!ped! [A,,C,]A,,[A,,B,,]!ped-up![A,,C,] |!ped! [E,,B,,][E,,C,][E,,D,]!ped-up![E,,^D,] | %36
!ped! [E,,E,][E,F,][E,=G,]!ped-up![E,^G,] | .[A,,A,] z z2 | z2 E2 | z E,/F,/ A,/G,/F,/G,/ | %40
 [A,,A,]2 [E,,E,]2 | .[A,,,A,,]2 z2 | z2 E2 | z E,/F,/ A,/G,/F,/G,/ | [A,,A,]2 [C,,C,]2 | %45
 .[F,,,F,,][K:treble] F/G/ B/A/G/F/ |[K:bass] z C/^D/ F/^E/D/E/ | [F,F]2 [C,C]2 | %48
 [F,,F,]2 [C,,C,]2 | .[F,,,F,,][K:treble] F/G/ B/A/G/F/ |[K:bass] z C/^D/ F/^E/D/E/ | %51
 [F,F]2 [C,C]2 | [F,,F,]2 [C,,C,]2 | .[F,,,F,,]>[F,,C,F,] [F,,C,F,]>[F,,C,F,] | %54
 [F,,C,F,]>[F,,C,F,] [F,,C,F,]>[F,,C,F,] | [^E,,C,^E,]>[^E,,C,^E,] [E,,C,E,]>[^E,,C,^E,] | %56
 [^E,,C,^E,]>[^E,,C,^E,] [E,,C,E,]>[^E,,C,^E,] | [F,,C,F,]>[F,,C,F,] [F,,C,F,]>[F,,C,F,] | %58
 [E,,F,,E,]>[E,,F,,E,] [E,,F,,E,]>[E,,F,,E,] | [^D,,=A,,^D,]>[D,,A,,D,] [D,,=A,,D,]>[D,,A,,D,] | %60
 [C,,C,]>[C,,C,] [C,,C,]>[C,,C,] | [^B,,,^B,,]>[A,,,A,,] [A,,,A,,]>[A,,,A,,] | %62
 [A,,,A,,]>[A,,,A,,] [A,,,A,,]>[A,,,A,,] | z!mp! G/A/ G/A/G/A/ | F/A/F/A/ F/G/F/G/ | %65
 F/G/F/G/!f! G,/!mp!G/F/G/ |!f! G,,/!mp!G,/F,/G,/!f! C,/!mp!G,/E,/G,/ |!f! z!mp! G/A/ G/A/G/A/ | %68
!p! F/A/F/A/ F/G/F/G/ |"^dim." F/G/F/G/!mp! G,/!p!G/F/G/ | %70
!mp! G,,/!p!G,/F,/G,/!mp! C,/!pp!G,/E,/G,/ | F,/G,/F,/G,/!p! G,,/!pp!G,/F,/G,/ | %72
!p! G,,/!pp!G,/F,/G,/!p! C,/!pp!G,/E,/G,/ | F,/G,/F,/G,/ G,,/G,/F,/G,/ | %74
 G,,/G,/^D,/G,/ ^B,,/G,/B,,/G,/ | [C,,C,]>[C,G,]!f! [C,G,]2 | [G,,,G,,]>[G,,G,] [G,,G,]2 | %77
 [C,,C,]>[C,G,] [C,G,]2 | [G,,,G,,]>[G,,G,]!f! [G,,G,]2 |!p! [C,,G,,C,] z z2 | %80
"^dolce" .[C,A,]2 .[C,A,]2 | .A,2 A,2 | .[C,A,]2 .[C,A,]2 | .A,2 .A,2 | z2 [G,^B,]2 | %85
 [C,,C,]>[C,G,] [C,G,]2 | [G,,,G,,]>[G,,G,] [G,,G,]2 | [C,,C,]>[C,G,] [C,G,]2 | %88
 [G,,,G,,]>[G,,G,]!f! [G,,G,]2 | [C,,G,,C,] z z2 | .[C,A,]2 .[C,A,]2 | .A,2 A,2 | %92
 .[C,A,]2 .[C,A,]2 | [C,A,] z"^cresc. poco a poco"!ped! [A,,E,=G,]2- | [A,,E,G,]4- | %95
 [A,,E,G,] z/ =G,/"_r.h."E,z/C,/ | E,z/=G,/A,z/C/ | E!ped-up! z [A,,C,E,=G,]2 | D,2!mp! D, z | %99
!ped! [A,,E,=G,]4- | [A,,E,G,]4- | [A,,E,G,]!ped-up! z/!mf!!ped! =G,/"_r.h."E,z/C,/ | %102
 E,z/=G,/A,z/C/ | E!ped-up! z [A,,C,E,=G,]2 | D,2 D, z | %105
!ff!!ped! [^B,,,^D,,]/!f!^B,,/[B,,,D,,]/B,,/ [B,,,D,,]/B,,/[B,,,D,,]/B,,/ | %106
 [^B,,,^D,,]/^B,,/[B,,,D,,]/B,,/ [B,,,D,,]/B,,/[B,,,D,,]/B,,/!ped-up! | %107
!ped! [C,,E,,]/!f!C,/[C,,E,,]/C,/ [C,,E,,]/C,/[C,,E,,]/C,/!ped-up! | %108
!ped! [^B,,,^D,,]/!f!^B,,/[B,,,D,,]/B,,/ [B,,,D,,]/B,,/[B,,,D,,]/B,,/!ped-up! | %109
!ped! [C,,E,,]/!f!C,/[C,,E,,]/C,/ [C,,E,,]/C,/[C,,E,,]/C,/!ped-up! | %110
!ped! [^B,,,^D,,]/!f!^B,,/[B,,,D,,]/B,,/ [B,,,D,,]/B,,/[B,,,D,,]/B,,/!ped-up! | %111
!ped! [C,,E,,]/!f!C,/[C,,E,,]/C,/ [C,,E,,]/C,/[C,,E,,]/C,/!ped-up! | %112
!ped! [F,,C,]/F,/[F,,C,]/F,/ [F,,C,]/F,/[F,,C,]/F,/!ped-up! | %113
!ped! [G,,C,]/G,/[G,,C,]/G,/ [G,,C,]/G,/[G,,C,]/G,/!ped-up! | %114
!ped! G,,,/!f!G,,/G,,,/G,,/ G,,,/G,,/G,,,/G,,/!ped-up! | %115
 [C,,G,,]/C,/C,,/C,/!ped! [C,F,A,]/^B,/[C,F,A,]/B,/ | %116
 [C,F,A,]/^B,/[C,F,A,]/B,/ [C,F,A,]/B,/[C,F,A,]/B,/!ped-up! | %117
 [C,E,G,]/C/[C,E,G,]/C/!ped! [C,F,A,]/^B,/[C,F,A,]/B,/ | %118
 [C,F,A,]/^B,/[C,F,A,]/B,/ [C,F,A,]/B,/[C,F,A,]/B,/!ped-up! | %119
 [C,E,G,]/C/[C,E,G,]/C/ [C,F,A,]/^B,/[C,F,A,]/B,/ | %120
 [C,E,G,]/C/[C,E,G,]/C/ [C,F,A,]/!f!^B,/[C,F,A,]/B,/ | %121
 [C,E,G,]/C/[C,E,G,]/C/ [C,F,A,]/^B,/[C,F,A,]/B,/ |!ff! [C,E,G,C] E,/C/ [C,_B,]/C/[C,B,]/C/ | %123
 [C,_B,] [E,E]/[E,E]/ [E,E] z | z4 | [=C,,=C,] [E,=G,_B,]/E/ [E,G,B,] z | z4 | %127
!f! [=C,,=C,] z [D,=F,][E,=G,] | [=F,A,] z [E,=G,][F,A,] | [E,=G,] z [D,=F,][E,G,] | [=F,A,] z z2 | %131
 z4 | ^G,,>"^r.h."E,!ff! E,2- |"^l.h." E,4 |!f! [E,,E,] z [F,A,][G,B,] | %135
 [A,=C] z!ff! [^G,B,][A,C] | [G,B,] z [F,A,][G,B,] | =C z z2 | z4 | %139
"^l.h."!f! ^D,,>"^r.h."B,,!ff! B,,2- |"^l.h."!f! B,,4 | [=D,,,=D,,] z!f! z2 | z4 | %143
"^l.h." C,,>"^r.h."A,,!ff! A,,2- | A,,4 | [=C,,,=C,,] z z2 | %146
"^l.h" =C,,>"^r.h"_A,,!ff!"^l.h" A,,2 ||[K:C]!f! [G,,,G,,] z!ff! [A,,C,][B,,D,] |: %148
 [C,E,] z!ff! [B,,D,][C,E,] | [B,,D,] z!ff! [A,,C,][B,,D,] | E,/ E,/F,/G,/!ff! A,/!f!G,/F,/E,/ | %151
 [B,,D,] z!ff! [A,,C,][B,,D,] | [C,E,] z!ff! [B,,D,][C,E,] | [B,,D,] z!ff! [A,,C,][B,,D,] |1 %154
 C,/D,/E,/F,/ G,/A,/B,/C/ | [B,,D,] z!ff! [A,,C,][B,,D,] :|2 C,/D,/E,/D,/ C,/_B,,/A,,/G,,/ |: %157
 [F,,F,] z [F,,C,F,]2 | [E,,C,E,] z!ff! [E,,C,E,]2 | [F,,F,] z!ff! [F,,C,F,]2 | %160
 [E,,C,E,] z!ff! A,,/!f!A,/E,/A,/ | D,/A,/D,/_A,/!ff! G,,/!f!G,/C,/G,/ | %162
 C,/G,/E,/G,/!ff! E,,/!f!E,/C,/E,/ | G,,/F,/B,,/F,/ G,,/F,/B,,/F,/ |1 %164
 [C,E,]/C,/E,/D,/ C,/_B,,/A,,/G,,/ :|2 E,/G,/E,/G,/ E,/!f!A,/!ff![E,G,]/!f!A,/ || %166
 F,/A,/F,/A,/ F,/!f!G,/!ff![D,F,]/!f!G,/ | E,/G,/E,/G,/ C,/!f!E,/!ff!C,/!f!E,/ | %168
 C,/E,/C,/E,/ D,/F,/D,/F,/ | E,/G,/E,/G,/ E,/!f!G,/!ff!E,/!f!G,/ | %170
 F,/A,/F,/A,/ F,/!f!A,/F,/!f!A,/ |!ff! [D,F,]/!f!G,/F,/G,/ F,/!f!G,/!ff![D,F,]/!f!G,/ | %172
 E,/G,/E,/G,/ E,/!f!G,/E,/G,/ | A,/C/A,/C/ A,/!f!C/A,/C/ | %174
 [F,A,]/D/[F,A,]/D/ F,/!f!A,/!ff!F,/!f!A,/ | [D,E,]/G,/[D,E,]/G,/ [D,E,]/!f!G,/!ff![D,E,]/!f!G,/ | %176
 [^C,E,]/G,/[C,E,]/G,/ E,/!f!G,/E,/G,/ | F, z!ff!!ped! [D,D]2 | %178
!f! [F,F]!ped-up! z!ff!!ped! [A,,A,]2 |!f! [D,D]!ped-up! z!ff!!ped! [F,,F,]2 | %180
!f! [A,,A,]!ped-up! z!ff!!ped! [D,,D,]2 |!f! [F,,F,]!ped-up! z!ff!!ped! [A,,,A,,]2 | %182
!f! [D,,D,]!ped-up! z!ff!!ped! [F,,,F,,]2 |!f! [A,,,A,,]!ped-up! z!ff!!ped! [F,,,F,,]2 | %184
!f! [A,,,A,,]!ped-up! z!ff!!ped! [^F,,,^F,,]2 |!f! [A,,,A,,]!ped-up! z!ff!!ped! [^F,,,^F,,]2 | %186
!f! [_B,,,_B,,]!ped-up! z!ff!!ped! [G,,,G,,]2 |!f! [_B,,,_B,,]!ped-up! z!ff!!ped! [G,,,G,,]2 | %188
!f! [=B,,,=B,,]!ped-up! z!ff!!ped! [^G,,,^G,,]2 |!f! [B,,,B,,]!ped-up! z!ff!!ped! [^G,,,^G,,]2 | %190
!f! [C,,C,]!ped-up! z!ff!!ped! [A,,,A,,]2 |!f! [^C,,^C,]!ped-up! z!ff!!ped! [^A,,,^A,,]2 | %192
!f! [D,,D,]!ped-up! z!ff!!ped! [B,,,B,,]2 |!f! [^D,,^D,]!ped-up! z!ff!!ped! [^B,,,^B,,]2 | %194
!f! [E,,E,]!ped-up! z!ff!!ped! [^C,,^C,]2 |!f! [E,,E,]!ped-up! z!ff!!ped! [=D,,=D,]2 | %196
!f! [E,,E,]!ped-up! z!ff!!ped! [^D,,^D,]2 |!f! [E,,E,]!ped-up! z!ff!!ped! [^D,,^D,]2!ped-up! | %198
!mf! [E,,E,]"^dim." z!ped! [^D,,^D,]2 | [E,,E,]!ped-up! z!ped! [^D,,^D,]2 | %200
 [E,,E,]!ped-up! z!mp!!ped! [^D,,^D,]2 | [E,,E,]!ped-up! z!p!!ped! [E,,E,]2!ped-up! | %202
!pp! [=F,,=F,]!ped! F,,/F,/ F,,!ped-up! z | FF/F/ F z |!ped! [F,,F,]F,,/F,/ F,,!ped-up! z | %205
 FF/F/ F z |[K:treble] [FA] z [F-A]2 | [F_B] z [F-B]2 | [FA] z [F-A]2 | [F_B] z!ped! [FB]2- | %210
 [FB]4- |!p! [FB]2 x x/ z/ |[K:bass]!mp! x2 D,,>_B,,!ped-up! |!pp!!ped! F,,F,,/F,/ .F,,!ped-up! z | %214
 FF/F/ F z |!ped! [F,,F,]F,,/F,/ .F,,!ped-up! z | FF/F/ F z |[K:treble] [FA] z [F-A]2 | %218
 [F_B] z [F-B]2 | [FA] z [F-A]2 | [F^G] z!ped! [FG=B]2- |"^cresc." [FGB]4- | [FGB]2!mf! x2 | %223
[K:bass] x2 D,,>B,,!ped-up! |!ff! [E,,E,]!ped![E,E]/[E,E]/ [E,E]!ped-up! z | z4 | %226
!ff!!ped! [E,,E,][E,B,D]/[E,B,D]/ [E,B,D]!ped-up! z | z4 |:[K:A]!f! [G,B,] z z [G,B,] | %229
 [A,C] z z [A,C] | [G,B,] z z [G,B,] | [A,C] x x2 | G, z z [G,B,] | [A,C] z z [A,C] | %234
 [G,B,] z z [G,B,] |1 [A,,A,]/B,,/C,/D,/ E,/F,/G,/A,/ :|2 [A,,E,A,]!ped!A,/A,/ A,!ped-up! z || %237
!ped! [A,,E,A,]A,/A,/ A,!ped-up! z |!ped! [E,,E,] [E,G,B,]/[E,G,B,]/ [E,G,B,]!ped-up! z | %239
!ped! [E,,E,] [E,G,B,]/[E,G,B,]/ [E,G,B,]!ped-up! z |!ped! [A,,,A,,] z [E,A,CE] z | %241
 [A,,,A,,] z [E,A,CE] z!ped-up! |!ped! [E,,E,] z [E,G,B,E] z | [E,,E,] z [E,G,B,E] z!ped-up! | %244
 [A,,C,E,A,]!ped! A,/A,/ A,!ped-up! z | [A,,E,A,]!ped! A,/A,/ A,!ped-up! z | %246
!ped! [E,,E,] [E,G,B,]/[E,G,B,]/ [E,G,B,]!ped-up! z | %247
!ped! [E,,E,] [E,G,B,]/[E,G,B,]/ [E,G,B,]!ped-up! z |!ped! [A,,,A,,]A,,/A,,/ A,,!ped-up! [A,,B,,] | %249
!ped! [A,,C,]A,,[A,,B,,]!ped-up![A,,C,] |!ped! [E,,B,,][E,,C,][E,,D,]!ped-up![E,,^D,] | %251
!ped! [E,,E,][E,F,][E,=G,]!ped-up![E,^G,] | .[A,,A,] z z2 | z2 E2 | z E,/F,/ A,/G,/F,/G,/ | %255
 [A,,A,]2 [E,,E,]2 | .[A,,,A,,]2 z2 | z2 E2 | z E,/=F,/ A,/=G,/F,/G,/ | [A,,A,]2 [A,,,A,,]2 | %260
 [D,,D,] z z2 | z2 A,2 | z A,/B,/ D/C/B,/C/ | [D,D]2 [A,,,A,,]2 | [D,,,D,,] z z2 | z2 A,2 | %266
 z A,/B,/ D/C/B,/C/ | [D,D]2 [A,,,A,,]2 | [D,,D,]>[D,,A,,D,][D,,A,,D,]>[D,,A,,D,] | %269
 [D,,A,,D,]>[D,,A,,D,][D,,A,,D,]>[D,,A,,D,] | [C,,A,,C,]>[C,,A,,C,][C,,A,,C,]>[C,,A,,C,] | %271
 [C,,A,,C,]>[C,,A,,C,][C,,A,,C,]>[C,,A,,C,] | [D,,A,,D,]>[D,,A,,D,][D,,A,,D,]>[D,,A,,D,] | %273
!ped! [=C,,A,,=C,]>[C,,A,,C,][C,,A,,C,]>!ped-up![C,,A,,C,] | %274
 [B,,,D,,B,,]>[B,,,D,,B,,][B,,,D,,B,,]>[B,,,D,,B,,] | %275
!ped! [A,,,A,,]>[A,,,A,,][A,,,A,,]>!ped-up![A,,,A,,] | [^G,,,^G,,]>[=F,,,=F,,][F,,,F,,]>[F,,,F,,] | %277
[=F,,,=F,,]>[F,,,F,,][F,,,F,,]>[F,,,F,,] | [E,,,E,,]!ped! E,/E/!ff! E,/!mp!=F/!ped-up!E/F/ | %279
 D/=F/D/F/ D/E/D/E/ | D/E/D/E/ E,/E/D/E/ | [E,,E,] z [A,,A,] z | [E,,E,]E,/E/!f! E,/!mp!=F/E/F/ | %283
 D/=F/D/F/ D/E/D/E/ | D/E/D/E/ E,/E/D/E/ | [E,,E,] z [A,,A,] z | [E,,E,] z E,/E/D/E/ | %287
 [E,,E,] z [A,,A,] z | [E,,E,] z E,/E/D/E/ | B,/D/B,/D/ G,/B,/G,/B,/ | %290
 [A,,,A,,]>.[A,,E,] [A,,E,]2 |!p! [E,B,]3/2 z/ [E,,E,]2 |!p! A,>.G, [A,,A,]2 |!p! B,>.A, [E,,E,]2 | %294
!p! [A,,A,]2 A,,2 | .[^B,,G,]2 .[B,,G,]2 | .G,2 .G,2 | .[^B,,G,]2 .[B,,G,]2 | .G,2 .G,2 | %299
"^dolce"!ped! [G,B,E]2 [G,B,E]2!ped-up! | [A,CE]>[B,D] [A,CE]2 | [B,D]>[A,C] [B,D]2 |!p! C>B, C2 | %303
 [B,D]>[A,C] [B,D]2 | C2 [CE]2 | [^B,,G,]2 [^B,,G,]2 | G,2 G,2 | %307
"^dolce"!ped! [E,G,DE]2 [E,G,DE]2!ped-up! |!ped! [A,CE]2 [A,CE]2!ped-up! | %309
!ped! [E,G,DE]2 [E,G,DE]2!ped-up! |!ped! [A,CE]2 [A,CE]2!ped-up! | %311
!ped! [E,G,DE]2 [E,G,DE]2!ped-up! | [E,G,B,DE] z"^cresc. poco a poco"!ped! [E,B,D]2 | [E,B,D]4 | %314
 [E,B,D] z/ D/B,z/G,/ | B,z/D/E z | z2!ped-up! [G,,D,E,G,] z | %317
!ped! [A,,C,E,A,] z [A,,,A,,] z!ped-up! |!ped! [E,B,D]4- | [E,B,D]4- | %320
 [E,B,D] z/!mf! D,/B,,z/G,,/ | B,,z/D,/E,z/G,/ | B,!ped-up! z [G,B,DE]2 | %323
!ped! [A,CE] z [C,E,A,] z!ped-up! | %324
!ff!!ped! [=C,,=G,,]/!f!=C,/[C,,G,,]/C,/ [C,,G,,]/C,/[C,,G,,]/C,/ | %325
 [=C,,=G,,]/=C,/[C,,G,,]/C,/ [C,,G,,]/C,/[C,,G,,]/C,/!ped-up! | %326
!ped! =F,,/=C,/F,,/C,/ F,,/C,/F,,/C,/!ped-up! | %327
!ped! [=C,,=G,,]/=C,/[C,,G,,]/C,/ [C,,G,,]/C,/[C,,G,,]/C,/!ped-up! | %328
!ped! =F,,/=C,/F,,/C,/ F,,/C,/F,,/C,/!ped-up! | %329
!ped! [=C,,=G,,]/=C,/[C,,G,,]/C,/ [C,,G,,]/C,/[C,,G,,]/C,/ | %330
 [=C,,=G,,]/=C,/[C,,G,,]/C,/ [C,,G,,]/C,/[C,,G,,]/C,/ | %331
 [=C,,=G,,]/=C,/[C,,G,,]/C,/ [C,,G,,]/C,/[C,,G,,]/C,/!ped-up! | %332
!ped! =F,,/=C,/F,,/C,/ F,,/C,/F,,/C,/!ped-up! | %333
!ped! [=C,,=G,,]/=C,/[C,,G,,]/C,/ [C,,G,,]/C,/[C,,G,,]/C,/!ped-up! | %334
!ped! =F,,/=C,/F,,/C,/ F,,/C,/F,,/C,/ | %335
 [=F,,A,,]/=F,/[F,,A,,]/F,/ [F,,A,,]/F,/[F,,A,,]/F,/!ped-up! | %336
!ped! E,,/E,/E,,/E,/ E,,/E,/E,,/E,/!ped-up! |!ped! E,,/E,/E,,/E,/ E,,/E,/E,,/E,/!ped-up! | %338
 [A,,C,E,]/A,/[A,,C,E,]/A,/!ped! [A,,D,=F,]/B,/[A,,D,F,]/B,/ | %339
 [A,,D,=F,]/B,/[A,,D,F,]/B,/ [A,,D,F,]/B,/[A,,D,F,]/B,/!ped-up! | %340
 [A,,C,E,]/A,/[A,,C,E,]/A,/!ped! [A,,D,=F,]/B,/[A,,D,F,]/B,/ | %341
 [A,,D,=F,]/B,/[A,,D,F,]/B,/ [A,,D,F,]/B,/[A,,D,F,]/B,/!ped-up! | %342
 [A,,C,E,]/A,/[A,,C,E,]/A,/!ped! [A,,D,=F,]/B,/[A,,D,F,]/B,/!ped-up! | %343
 [A,,C,E,]/A,/[A,,C,E,]/A,/!ped! [A,,D,=F,]/B,/[A,,D,F,]/B,/!ped-up! | %344
 [A,,C,E,]/A,/[A,,C,E,]/A,/!ped! [A,,D,=F,]/B,/[A,,D,F,]/B,/!ped-up! | %345
!ped! [A,,C,E,]/A,/[A,,C,E,]/A,/ [A,,C,E,]/A,/[A,,C,E,]/A,/ | [A,,C,E,A,] A,/A,/ A, z!ped-up! | %347
 z4 |!ped! [A,,,A,,] A,/A,/ A, z!ped-up! | z4 |!ped! [A,,,A,,] A,/A,/ A, z | %351
 [A,,,A,,] A,/A,/ A, z | [A,,,A,,] A,/A,/ A, z | [A,,,A,,] A,/A,/ A, z!ped-up! | %354
!ff! [^A,,,^A,,]"^sempre" z z2 | z F/^G/ F2 | z F,/G,/ B,/^A,/G,/A,/ | %357
 B, F,,/G,,/ B,,/^A,,/G,,/A,,/ | B,, z z2 | z F/G/ x2 | z F,/G,/ B,/^A,/G,/A,/ | %361
 B, F,,/G,,/ B,,/^A,,/G,,/A,,/ | B,, B,,/C,/ E,/D,/C,/B,,/ | E,2 D,2 | C,2 B,,2 | A,,2 B,,2 | %366
 [C,E,] B,,/C,/ E,/D,/C,/B,,/ | E,2 D,2 | C,2 B,,2 | z2 E,2 | z A,,/B,,/ D,/C,/B,,/A,,/ | D,2 C,2 | %372
 [B,,,B,,]2 [A,,,A,,]2 | [^G,,,^G,,]2 [A,,,A,,]2 |!mf! [G,,,G,,]2 [A,,,A,,]2 | %375
 [G,,,G,,]2 [A,,,A,,]2 | [_A,,,_A,,]2 [A,,,A,,]2 | [=G,,,=G,,]2 [_A,,,_A,,]2 | %378
 [=G,,,=G,,]2 [_A,,,_A,,]2 | [=G,,,=G,,]2 [^F,,,^F,,]2 | [=G,,,=G,,]2 [_A,,,_A,,]2 | %381
 [=G,,,=G,,]2 [^F,,,^F,,]2 | [=G,,,=G,,]2 [_G,,,_G,,]2 | [=C,_E,]2 [_G,,,_G,,]2 | %384
 [=F,,,=F,,]2 [_G,,,_G,,]2 | [_D,=F,] z z2 | [=F,,,=F,,]2 [_G,,,_G,,]2 | [_D,=F,] z z2 | %388
 [=F,,,=F,,]2 [F,,,F,,]2 | =C,2 [=F,,,=F,,]2 | [E,,,E,,]2 [=F,,,=F,,]2 | [=C,E,] x x2 | %392
 [E,,,E,,]2 [=F,,,=F,,]2 | [=C,E,] x x2 |!ped! [E,,,E,,]2 [^D,,,^D,,]2 | %395
 [E,,,E,,]2 [^D,,,^D,,]2!ped-up! |!ped! [E,,,E,,]2 [^D,,,^D,,]2 | [E,,,E,,]2 [^D,,,^D,,]2!ped-up! | %398
!ped! [E,,,E,,]2 [^D,,,^D,,]2 | [E,,,E,,]2 [^D,,,^D,,]2!ped-up! |!ped! [E,,,E,,]2 [^D,,,^D,,]2 | %401
 [E,,,E,,]2 [^D,,,^D,,]2!ped-up! |!ped! [E,,,E,,]2 [^D,,,^D,,]2!ped-up! | %403
!f!!ped! [E,,,E,,]2 [^D,,,^D,,]2!ped-up! |!ped! [E,,,E,,]2 [^D,,,^D,,]2!ped-up! | %405
!ped! [E,,,E,,]2 [^D,,,^D,,]2!ped-up! |!ped! [E,,,E,,]2 [^D,,,^D,,]2!ped-up! | %407
!ped! [E,,,E,,]2 [^D,,,^D,,]2!ped-up! |!ped! [E,,,E,,]2 [^D,,,^D,,]2 | %409
 [E,,,E,,]2 [^D,,,^D,,]2!ped-up! |!ped! [E,,,E,,]2 [^D,,,^D,,]2 | [E,,,E,,]2 [^D,,,^D,,]2!ped-up! | %412
!ped! [E,,,E,,]2 [^D,,,^D,,]2 | [E,,,E,,]2 [^D,,,^D,,]2!ped-up! |!ped! [E,,,E,,]2 [E,,,E,,]2 | %415
 [E,,E,]2 [E,,,E,,]2!ped-up! |!ped! [E,,E,]2 [E,,,E,,]2 | [E,,E,]2 [E,,,E,,]2!ped-up! | %418
!ped! [E,,E,]2 [^D,,,^D,,]2 | [E,,E,]2 [^D,,,^D,,]2!ped-up! |!ped! [E,,E,]2 [^D,,,^D,,]2 | %421
 [E,,E,]2 [^D,,,^D,,]2!ped-up! |!ped! [E,,,E,,] [A,,C,] [E,,A,,C,][E,,B,,D,] | %423
 [E,,C,E,][E,,A,,C,] [E,,B,,D,][E,,C,E,]!ped-up! |!ped! B,,C,D,E, | F,G,A,!ped-up!B, | %426
!ped! C,D,E,F, | G,A,B,!ped-up!C |!ped! D,[C,E,][D,F,][E,G,] | [F,A,][G,B,][A,C]!ped-up![B,D] | %430
!ped! [C,E,][D,F,][E,G,][F,A,] | [G,B,][A,C][B,D]!ped-up![CE] |!ped! [E,=G,][D,F,][C,E,][B,,D,] | %433
 [A,,C,][=G,,B,,][F,,A,,]!ped-up![E,,G,,] |!ped! [D,D][C,C][B,,B,][A,,A,] | %435
 [=G,,=G,][F,,F,][E,,E,]!ped-up![D,,D,] |!ped! [C,,A,,C,]2 [A,CE][C,,C,]!ped-up! | %437
!ped! [D,,D,]2 [A,DF][D,,D,]!ped-up! |!ped! [E,,E,]2 [A,CE][E,,E,]!ped-up! | %439
!ff!!ped! [E,,E,]2 [G,B,E][E,,E,]!ped-up! |!p! x3 .F, | .E,.E,"^cresc.".E,.E, | %442
!mp!!ped! [A,,,A,,][B,,,B,,][C,,C,][D,,D,] | [E,,E,][F,,F,][G,,G,]!ped-up![A,,A,] | %444
!mf!!ped! [B,,B,][A,,A,][G,,G,][F,,F,] | [E,,E,][D,,D,][C,,C,]!ped-up![B,,,B,,] | %446
!f!!ped! [C,,C,][D,,D,][E,,E,][F,,F,] | [G,,G,]!ff![A,,A,][B,,B,]!ped-up![C,C] | %448
!ff!!ped! [E,G,E][D,F,D][C,E,C][B,,D,B,] | [A,,C,A,][=G,,B,,=G,][F,,A,,F,]!ped-up![E,,^G,,E,] | %450
!ped! [D,F,D][C,E,C][B,,D,B,][A,,C,A,] | [=G,,B,,=G,][F,,A,,F,] [E,,G,,E,]!ped-up![D,,F,,D,] | %452
!ped! [C,,A,,C,]2 [A,CE][C,,C,]!ped-up! |!ped! [D,,D,]2 [A,DF][D,,D,]!ped-up! | %454
!ped! [E,,E,]2 [E,A,CE][E,,E,]!ped-up! |!ff!!f!!ped! [E,,E,]2 [E,G,B,E][E,,E,]!ped-up! | %456
 [A,,C,E,A,]!ped! A,/B,/ D/C/B,/A,/!ped-up! |!ped! G,/A,/B,/C/ D/E/F/G/!ped-up! | %458
 [A,CA]2 [E,G,B,E]2 | [A,,C,E,A,]2 [E,,G,,B,,E,]2 | %460
!ped! [E,,G,,B,,E,][E,,G,,B,,E,][E,,G,,B,,E,][E,,G,,B,,E,] | %461
 [E,,G,,B,,E,][E,,G,,B,,E,][E,,G,,B,,E,][E,,G,,B,,E,] | %462
!fff! [E,,G,,B,,E,]/F,,/G,,/A,,/B,,/C,/D,/E,/ |F,/G,/A,/B,/(3C/D/ E/!ped-up! z | %464
 [A,,,C,,E,,A,,]2 z!ped! [A,,C,E,A,]/[A,,C,E,A,]/ | %465
 [A,,C,E,A,]!ped-up! z z!ped! [A,,,C,,E,,A,,]/[A,,,C,,E,,A,,]/ | [A,,,C,,E,,A,,]!ped-up! z z2 |] %467
V:3
 x4 | x4 | x4 | x4 |: E, z E,2- | E, z E,2- | E, z E,2- | E,/ A,/B,/C/ D/C/B,/A,/ | E, z E,2- | %9
 E, z E,2- | E, z E,2 |1 x4 :|2 x4 |: z2 [D,A,]2 | z2 [C,A,]2 | z2 [D,A,]2 | C, z F,2 | B,, z E,2 | %18
 A,, z C,2 | E, z E,2 |1 x4 :|2 x4 || x4 | x4 | x4 | x4 | x4 | x4 | x4 | x4 | x4 | x4 | x4 | x4 | %34
 x4 | x4 | x4 | x4 | x4 | x4 | x4 | x4 | x4 | x4 | x4 | x[K:treble] x3 |[K:bass] z2 C2 | x4 | x4 | %49
 x[K:treble] x3 |[K:bass] z2 C2 | x4 | x4 | x4 | x4 | x4 | x4 | x4 | x4 | x4 | x4 | x4 | x4 | %63
 [G,,,G,,] z z2 | z4 | z2 G, z | G,, z C, z | [G,,,G,,] z z2 | z4 | z2 G, z | G,, z C, z | %71
 x2 G,, z | G,, z C, z | z2 G,, z | G,, z G,, z | x4 | x4 | x4 | x4 | x4 | A,,4 | D,4 | A,,4 | %83
 D,4 | [G,,,G,,]4 | x4 | x4 | x4 | x4 | x4 | A,,4 | D,4 | A,,4 | A,, z x2 | x4 | x2 A,,, z | x4 | %97
 x4 | [A,,F,]4 | x4 | x4 | x2 A,,, z | x4 | x4 | [A,,F,]4 | x4 | x4 | x4 | x4 | x4 | x4 | x4 | x4 | %113
 x4 | x4 | x4 | x4 | x4 | x4 | x4 | x4 | x4 | x4 | x4 | x4 | x4 | x4 | x2 =C,2- | C, z =C,2- | %129
 C, z =C,2 | x4 | x4 | ^G,,,>E,, E,,2- | E,,4 | x2 E,2- | E, z E,2 | x4 | x4 | x4 | %139
 ^D,,,>B,,, B,,,2- | B,,,4 | x4 | x4 | C,,,>A,,, A,,,2- | A,,,4 | x4 | =C,,,>_A,,, A,,,2 || %147
[K:C] x2 G,,2 |: G,, z G,,2 | G,, z G,,2 | C,/ C,/D,/E,/ F,/E,/D,/C,/ | G,, z G,,2 | G,, z G,,2 | %153
 G,, z G,,2 |1 x4 | G,, z G,,2 :|2 x4 |: x4 | x4 | x4 | x2 A,,2 | D, z G,,2 | C, z E,,2 | %163
 G,, z G,,2 |1 x4 :|2 C, z z ^C, || D,2 z B,, | =C,2 z A,, | G,,2 z G,, | C,2 z _B,, | A,,2 z D, | %171
 _B,,2 z B,, | C,2 z C, | F,2 z F, | D,2 z D, | G,,2 z G,, | A,,2 z A,, | D, z x2 | x4 | x4 | x4 | %181
 x4 | x4 | x4 | x4 | x4 | x4 | x4 | x4 | x4 | x4 | x4 | x4 | x4 | x4 | x4 | x4 | x4 | x4 | x4 | %200
 x4 | x4 | x4 | x4 | x4 | x4 |[K:treble] x4 | x4 | x4 | x4 | x4 | x4 |[K:bass] x4 | x4 | x4 | x4 | %216
 x4 |[K:treble] x4 | x4 | x4 | x4 | x4 | x4 |[K:bass] x4 | x4 | x4 | x4 | x4 |:[K:A] E, z E,2- | %229
 E, z E,2- | E, z E,2- | E,/ A,/B,/C/ D/C/B,/A,/ | E, z E,2- | E, z E,2- | E, z E,2 |1 x4 :|2 x4 || %237
 x4 | x4 | x4 | x4 | x4 | x4 | x4 | x4 | x4 | x4 | x4 | x4 | x4 | x4 | x4 | x4 | x4 | A,2 E,2 | %255
 x4 | x4 | x4 | x4 | x4 | x4 | x4 | D2 A,2 | x4 | x4 | x4 | D2 A,2 | x4 | x4 | x4 | x4 | x4 | x4 | %273
 x4 | x4 | x4 | x4 | x4 | x4 | x4 | x4 | x4 | x4 | x4 | x4 | x4 | x2 E, z | x4 | x2 E, z | %289
 D,2 E,2 | x4 | x4 | x4 | x4 | x4 | G,,4 | C,4 | G,,4 | C,4 | x4 | x4 | E,2 E,2 | A,2 A,2 | %303
 E,2 E,2 | A,4 | G,,4 | C,4 | x4 | x4 | x4 | x4 | x4 | x4 | x4 | x4 | x4 | x4 | x4 | %318
 z2 [E,,,E,,]2 | z2 [E,,,E,,]2 | z2 E,, z | z2 E,, z | x4 | x4 | x4 | x4 | x4 | x4 | x4 | x4 | x4 | %331
 x4 | x4 | x4 | x4 | x4 | x4 | x4 | x4 | x4 | x4 | x4 | x4 | x4 | x4 | x4 | x4 | x4 | x4 | x4 | %350
 x4 | x4 | x4 | x4 | x4 | x4 | B,2 F,2 | B,,2 F,,2 | B,,,2 z2 | z2 F2 | B,2 F,2 | B,,2 F,,2 | %362
 B,,, x3 | x4 | x4 | x4 | x4 | x4 | x4 | A,,2 =G,,2 | F,,2 E,,2 | D,,2 C,,2 | x4 | x4 | x4 | x4 | %376
 x4 | x4 | x4 | x4 | x4 | x4 | x4 | [=F,,,=F,,]2 x2 | x4 | [=F,,,=F,,]2 [=E,,,=E,,]2 | x4 | %387
 [=F,,,=F,,]2 [=E,,,=E,,]2 | x4 | [E,,,E,,]2 x2 | x4 | [E,,,E,,]2 [^D,,,^D,,]2 | x4 | %393
 [E,,,E,,]2 [^D,,,^D,,]2 | x4 | x4 | x4 | x4 | x4 | x4 | x4 | x4 | x4 | x4 | x4 | x4 | x4 | x4 | %408
 x4 | x4 | x4 | x4 | x4 | x4 | x4 | x4 | x4 | x4 | x4 | x4 | x4 | x4 | x4 | x4 | E,,2 E,,2 | %425
 z2 E,2 | E,,2 E,,2 | z2 E,2 | E,,2 z2 | z2 E,2 | E,,2 z2 | E,2 E,2 | x4 | x4 | x4 | x4 | x4 | x4 | %438
 x4 | x4 | .[G,,G,].[F,,F,].[E,,E,].[D,,D,] | .[C,,C,].[B,,,B,,].[A,,,A,,].[G,,,G,,] | x4 | x4 | %444
 x4 | x4 | x4 | x4 | x4 | x4 | x4 | x4 | x4 | x4 | x4 | x4 | x4 | [E,E]2 z2 | x4 | x4 | x4 | x4 | %462
 x4 | x4 | x4 | x4 | x4 |] %467
V:4
 x4 | x4 | x4 | x4 |: x4 | x4 | x4 | x4 | x4 | x4 | x4 |1 x4 :|2 x4 |: x4 | x4 | x4 | x4 | x4 | %18
 x4 | x4 |1 x4 :|2 x4 || x4 | x4 | x4 | x4 | x4 | x4 | x4 | x4 | x4 | x4 | x4 | x4 | x4 | x4 | x4 | %37
 x4 | z E/F/ A/G/F/G/ | A2 x2 | x4 | x4 | z E/F/ A/G/F/G/ | A2 x2 | x4 | x4 | [cc']2 [Bb]2 | %47
 [Aa]2 z2 | x4 | x4 | [cc']2 [Bb]2 | [Aa]2 z2 | x4 | x4 | x4 | x4 | x4 | x4 | x4 | x4 | x4 | x4 | %62
 x4 | x4 | x4 | x4 | x4 | x4 | x4 | x4 | x4 | x4 | x4 | x4 | x4 | x4 | x4 | x4 | x4 | E z z2 | %80
 =G2 G2 | F2 F2 | =G2 G2 | F2 F2 | [F^B]2 [FB]2 | x4 | x4 | x4 | x4 | E z z2 | =G2 G2 | F2 F2 | %92
 =G2 G2 | =G z/ =g/ e z/ c/ | Az/=G/ Ez/C/ | A, z z2 | x4 | x4 | x4 | =gz/g/ez/c/ | Az/=G/ Ez/C/ | %101
 A, z z2 | x4 | x4 | x4 | x4 | x4 | x4 | x4 | x4 | x4 | x4 | x4 | x4 | x4 | g/e/f/g/ =b/!f!a/g/f/ | %116
 ^b/a/g/f/ b/a/g/f/ | g/e/f/g/ =b/!f!a/g/f/ | b/a/g/f/ b/!f!a/g/f/ | g/e/f/g/ b/!f!a/g/f/ | %120
 g/e/f/g/ =b/a/g/f/ | g/e/f/g/ b/!f!a/g/f/ | x4 | x4 | x4 | x4 | x4 | =G, z z2 | x4 | x4 | x4 | %131
 x4 | x4 | x4 | [B,G] z z2 | x4 | x4 | x4 | x4 | x4 | x4 | x4 | x4 | x4 | x4 | x4 | x4 || %147
[K:C] x4 |: x4 | x4 | x4 | x4 | x4 | x4 |1 x4 | x4 :|2 x4 |: x2 z c- | c z z c- | c z z c- | %160
 c z c z | d z z B | c z z c | B z z2 |1 x4 :|2 x4 || x z [Gg]2 | x z [Ee]2 | x4 | x4 | x z [Aa]2 | %171
 x z [Gg]2 | x z [Ee]2 | x z [Aa]2 | x z [Ff]2 | x z _B z | x A/A/ A z | x4 | x4 | x4 | x4 | x4 | %182
 x4 | x4 | x4 | x4 | x4 | x4 | x4 | x4 | x4 | x4 | x4 | x4 | x4 | x4 | x4 | x4 | x4 | x4 | x4 | %201
 x4 | x4 | x4 | x4 | x4 | x4 | x4 | x4 | x4 | x4 | x4 |[I:staff +1] D,>[I:staff -1]_B, z2 | x4 | %214
 x4 | x4 | x4 | x4 | x4 | x4 | x4 | x4 | x4 |[I:staff +1] D,>[I:staff -1]B, z2 | x4 | x4 | x4 | %227
 x4 |:[K:A] x4 | x4 | x4 | x2 f/!f!e/d/c/ | x4 | x4 | x4 |1 x4 :|2 x4 || x4 | x4 | x4 | x4 | x4 | %242
 x4 | x4 | x4 | x4 | x4 | x4 | x4 | x4 | x4 | x4 | x4 | z E/F/ A/G/F/G/ | A2 x2 | x4 | x4 | %257
 z E/F/ A/G/F/G/ | A z x2 | x4 | x4 | z"_l.h." A/B/ d/c/B/c/ | d2 =G2 | =F2 =G2 | [=Fd] x3 | %265
 z"_l.h." A/B/ d/c/B/c/ | d2 =G2 | =F2 =G2 | x4 | x4 | x4 | x4 | x4 | x4 | x4 | x4 | x4 | x4 | x4 | %279
 x4 | x4 | D/E/D/ z/ =C/E/C/ z/ | x4 | x4 | x4 | D/E/D/ z/ =C/E/C/ z/ | %286
 z/ =F/[I:staff +1]D/F/[I:staff -1] z2 | D/E/D/ z/ =C/E/C/ z/ | D/E/D/ z/ z2 | x4 | x4 | x4 | x4 | %293
 x4 | C2 E2 | F2 F2 | E2 E2 | F2 F2 | E2 E2 | x4 | x4 | x4 | x4 | x4 | c4 | F2 F2 | E2 E2 | x4 | %308
 x4 | x4 | x4 | x4 | d'z/d'/bz/g/ | ez/d/B!p!z/G/ | E z z2 | z2 z3/2 G/- | G x3 | x4 | %318
 d'z/d'/ bz/g/ | ez/d/Bz/G/ | Ez/D/B,z/G,/ | B,z/D/Ez/G/ | B x3 | x4 | x4 | x4 | x4 | x4 | x4 | %329
 x4 | x4 | x4 | x4 | x4 | x4 | x4 | x4 | x4 | x2 ^g2 | ^g2 g2 | x2 ^g2 | ^g2 g2 | x2 ^g2 | x2 ^g2 | %344
 x2 ^g2 | x4 | x4 | x4 | x4 | x4 | x4 | x4 | x4 | x4 | x4 | z2 B/^A/^G/A/ | B2 x2 | x4 | [FB] x3 | %359
 z2 B/^A/G/A/ | B2 x2 | x4 | [FB] x3 | x4 | x4 | e2 d2 | x4 | x4 | x4 | e2 [Ac]2 | A4- | %371
 AF/=G/ A/G/F/E/ | x4 | x4 | x4 | x4 | x4 | x4 |[K:bass] x4 | x[K:treble] x3 | x[K:bass] x3 | %381
 x[K:treble] x3 | x4 | x4 | x4 | x4 | x4 | x4 | x4 | x4 | x4 | x4 | x4 | x4 | x4 | x4 | x4 | x4 | %398
 x4 | x4 | x4 | x4 | x4 | x4 | x4 | x4 | x4 | x4 | x4 | x4 | x4 | x4 | x4 | x4 | x4 | x4 | x4 | %417
 x4 | x4 | x4 | x4 | x4 |!8va(! x4 | x4 | x4 | x4 | x4 | x4 | x4 | x4 | x4 | x4!8va)! | x4 | x4 | %434
 x4 | x4 | x4 | x4 | x4 | x4 | x4 | x4 | x4 | x4 | x4 | x4 | x4 | x4 | x4 | x4 |!8va(! x4 | x4 | %452
 x4 | x4 | x4 | x4 | x!8va)! x3 | [ee']4- | [eac'e'] z e2 | x z e2 | e2 e2 | e2 e2 | x4 | x4 | x4 | %465
 x4 | x4 |] %467

